X:1
T:O Blessèd Be the Lord
T:Ira David Sankey
T:O Blessèd Be the Lord
T:Public Domain
T:Public Domain
C:Ira David Sankey
Z:Public Domain
%%score ( 1 2 ) ( 3 4 )
L:1/8
M:4/4
K:D
V:1 treble 
V:2 treble 
V:3 bass 
V:4 bass 
V:1
 [DA]2 | [DF]2 [FA]2 [FA]2 [GB]2 | [FA]6 [Fd]2 | [Af]2 [Ge]2 [Fd]2 [GB]2 | [FA]6 [FA]2 | %5
w: 1.~O|bless- èd be the|Lord For|His e- ter- nal|Word, That|
w: 2.~O|bless- èd be the|Lord, In|Heav’n and earth a-|dored; The|
w: 3.~O|bless- èd be our|King, Whose|Name the an- gels|sing, While|
 [FA]2 [EG]2 [EG]2 [Ec]2 | [Ec]2 [GB]2 [FA]2 [Fd]2 | [Fd]2 [Ad]2 [Gc]2 [Fd]2 | [Ae]6 [EA]2 | %9
w: sheds a- round the|paths we tread Its|calm and stea- dy|rays: Come,|
w: God of truth and|right- eous- ness, Our|hope be- yond the|grave; Let|
w: all the ran- somed|host a- bove Their|crowns be- fore Him|cast; O|
 [DF]2 [FA]2 [FA]2 [GB]2 | [FA]6 [Fd]2 | [Af]2 [Ge]2 [Fd]2 [GB]2 | [FA]6 [FA]2 | %13
w: wor- ship at His|throne; O|make His won- ders|known, And|
w: an- thems to the|skies In|joy- ful con- cert|rise; O|
w: bless- èd be our|King, Who|soon His own shall|bring; For-|
 [GB]2 [GB]2 [Gc]2 [Gd]2 | [Fd]2 [DF]2 [Ac]2 [GB]2 | [FA]4 (G2 E2) | [Fd]6 |] %17
w: let His tem- ple|gates be filled With|songs of *||
w: praise the Lord, Whose|might- y arm Is|strong to *||
w: ev- er there, to|rest from care, With|Him at *||
V:2
 x2 | x8 | x8 | x8 | x8 | x8 | x8 | x8 | x8 | x8 | x8 | x8 | x8 | x8 | x8 | x4 c4 | x6 |] %17
w: |||||||||||||||praise.||
w: |||||||||||||||save.||
w: |||||||||||||||last.||
V:3
 [D,F,]2 | [D,A,]2 [D,D]2 [D,D]2 [D,D]2 | [D,D]6 [D,A,]2 | [D,D]2 [A,C]2 [B,D]2 [G,D]2 | %4
 [D,D]6 [D,A,]2 | [A,,A,]2 [A,,A,]2 [A,,A,]2 [A,,A,]2 | [A,,A,]2 [C,A,]2 [D,A,]2 [D,A,]2 | %7
 [D,A,]2 [F,D]2 [E,A,]2 [D,A,]2 | [A,,C]6 [A,,C]2 | [D,D]2 [D,D]2 [D,D]2 [D,D]2 | [D,D]6 [D,A,]2 | %11
 [D,D]2 [A,C]2 [B,D]2 [G,D]2 | [D,D]6 [D,D]2 | [G,D]2 [G,D]2 [E,A,]2 [D,B,]2 | %14
 [D,A,]2 [D,A,]2 [G,,B,]2 [G,,D]2 | (D2 A,2) [A,,A,]4 | [D,A,]6 |] %17
V:4
 x2 | x8 | x8 | x8 | x8 | x8 | x8 | x8 | x8 | x8 | x8 | x8 | x8 | x8 | x8 | A,,4 x4 | x6 |] %17

